X: 16791
T: Harper's Frolic
R: polka
M: 2/4
K: Dmajor
A/G/|:FA DA/G/|F/G/A Dd|cd ec|d/c/d/e/ fA/G/|
FA DA/G/|F/G/A Dd|cd ec|1 d2 dA/G/:|2 d2 dd/e/||
|:fd df|ge eg|fd df|e/d/c/B/ Ad/e/|
fd df|ge eg|fd ec|1 d2 dd/e/:|2 d2 d2||

